storage/app/icons/phosphoricons/bold/video-bold.svg

<svg xmlns="http://www.w3.org/2000/svg" fill="currentColor" viewBox="0 0 256 256"><path d="M216 36H40a20 20 0 0 0-20 20v104a20 20 0 0 0 20 20h176a20 20 0 0 0 20-20V56a20 20 0 0 0-20-20m-4 120H44V60h168Zm24 52a12 12 0 0 1-12 12H32a12 12 0 0 1 0-24h192a12 12 0 0 1 12 12m-132-80V88a12 12 0 0 1 18.36-10.18l32 20a12 12 0 0 1 0 20.36l-32 20A12 12 0 0 1 104 128"/></svg>

<svg xmlns="http://www.w3.org/2000/svg" viewBox="0 0 256 256" fill="currentColor"><path d="M216,36H40A20,20,0,0,0,20,56V160a20,20,0,0,0,20,20H216a20,20,0,0,0,20-20V56A20,20,0,0,0,216,36Zm-4,120H44V60H212Zm24,52a12,12,0,0,1-12,12H32a12,12,0,0,1,0-24H224A12,12,0,0,1,236,208ZM104,128V88a12,12,0,0,1,18.36-10.18l32,20a12,12,0,0,1,0,20.36l-32,20A12,12,0,0,1,104,128Z"/></svg>
